X:3
T: the Wren
O:trad. Brittany
R:Reel
M:C|
L:1/8
K:Bm clef=treble
|:\
"Bm"B2 f2 f2 ef | "Em"g2 e2 edcd | "A"eAce efed |\
[1,3 c2 c2 dcBA :|[2,4 c2 B2 "Bm"BAFA ::\
"Bm"B3A Bcdc | B2 B2 "A"c3d |
"A"eAce efed | c2 c2 "(F#m)"dcBA |\
"G"B3A Bcdc | B2 B2 "A"c3d |\
[1,3 "A"eAce efed :|[2,4 c2 B2 "Bm"B2 A2 :|\
["Coda."c2 B2 "Bm"B4 |]
